src/assets/images/prototype/produits-utilises/6-multi.svg

<svg width="229" height="688" viewBox="0 0 229 688" fill="none" xmlns="http://www.w3.org/2000/svg">
<path d="M63.7283 184.487C43.4855 264.062 3 439.686 3 505.579C3 587.946 12.0743 666.823 26.7329 670.313C41.3914 673.803 87.4611 684.972 120.268 684.972C153.076 684.972 211.012 674.502 218.69 652.165C226.368 629.828 231.254 453.227 218.69 421.816C206.126 390.405 176.808 375.746 171.224 348.523C166.757 326.745 148.887 230.092 140.511 184.487" stroke="#E0E0E0" stroke-width="5" stroke-dasharray="10 10"/>
<path d="M62.8614 184.487V91.0681H16.9609C18.491 62.7172 37.026 5.59701 98.9261 3.92384C160.826 2.25067 185.481 3.22669 190.071 3.92384M140.237 184.487C138.488 149.164 136.04 75.5913 140.237 63.8791C141.404 60.6196 144.631 57.5725 149 54.8069" stroke="#E0E0E0" stroke-width="5" stroke-dasharray="10 10"/>
<path d="M189.375 4.87402H218.692V39.0773H189.375" stroke="#E0E0E0" stroke-width="5" stroke-dasharray="10 10"/>
<path d="M183.786 41.3916C179.598 46.7431 171.92 70.7087 171.92 79.085C171.92 95.8376 204.727 141.874 221.48 145.397C200.539 150.982 182.39 132.296 168.43 111.892C161.17 101.282 151.445 72.1047 150.281 53.258" stroke="#E0E0E0" stroke-width="5" stroke-dasharray="10 10"/>
</svg>

<svg width="229" height="688" fill="none" xmlns="http://www.w3.org/2000/svg"><path d="M63.728 184.487C43.486 264.062 3 439.686 3 505.579c0 82.367 9.074 161.244 23.733 164.734 14.658 3.49 60.728 14.659 93.535 14.659 32.808 0 90.744-10.47 98.422-32.807 7.678-22.337 12.564-198.938 0-230.349s-41.882-46.07-47.466-73.293c-4.467-21.778-22.337-118.431-30.713-164.036m-77.65 0V91.068h-45.9c1.53-28.35 20.065-85.471 81.965-87.144 61.9-1.673 86.555-.697 91.145 0m-49.834 180.563c-1.749-35.323-4.197-108.896 0-120.608 1.167-3.26 4.394-6.306 8.763-9.072" stroke="#E0E0E0" stroke-width="5" stroke-dasharray="10 10"/><path d="M189.375 4.874h29.317v34.203h-29.317m-5.589 2.315c-4.188 5.351-11.866 29.317-11.866 37.693 0 16.753 32.807 62.789 49.56 66.312-20.941 5.585-39.09-13.101-53.05-33.505-7.26-10.61-16.985-39.787-18.149-58.634" stroke="#E0E0E0" stroke-width="5" stroke-dasharray="10 10"/></svg>
